X:445
T:Lady Shaftesbury
R:Slow Strathspey
C:Nathaniel Gow
B:The Athole Collection
M:C
L:1/8
Q:1/4=140
K:E_
G/F/|E<B, G,>B, E>F G<c|B<G F>E D<F FG/F/|E<B, G,>B, E>F G<c|
B<G F>G E3:|
B|e>dc>B e2 E>c|B>GF>E D<F F>B|e>dc>B e2 E>c|B<G F>G E3B|
e>dc>B B/=A/B/c/ d/c/d/e/|f<F F>G F>GB>c|B>c B<G F>E F<G|
E/F/G/F/ E>B, E3||

